!!!OTL: Jahreszeiten und Liebe
!!!ARE: Europa, Mitteleuropa, Deutschland
!!!SCT: A0151B
!!!YEM: Copyright 1995, estate of Helmut Schaffrath.
**kern
*ICvox
*Ivox
*M4/2
*k[]
*a:
=1
{2r
2a
2a
2a
=2
2ccn
2ccn
2b
2b
=3
1a
2r}
{2a
=4
2.dd
4ccn
2b
[2ccn
=5
2ccn]
1b
2a
=6
1b
2r}
{2b
=7
2b
2b
2dd
2dd
=8
2dd
1ccn
2b
=9
4a
4gn
4a
4b
2ccn
2b
=10
2a
2a
1gn}
=11
{2r
2gn
1a
=12
2b
2.ccn
4dd
2ee
=13
2.dd
4ccn
2b
2a
=14
1g#
1a}
==
!!!AGN: Romanze, Ballade, Lied
!! Souterliedekens 1540 ad Ps. 110
!!!ONB: ESAC (Essen Associative Code) Database: ALTDEU
!!!AMT: simple quadruple
!!!AIN: vox
!!!EED: Helmut Schaffrath
!!!EEV: 1.0
*-
